X:1
T:Title
%%score { ( 1 3 ) | ( 2 4 ) }
L:1/8
M:6/8
K:Eb
V:1 treble nm="Grand Piano"
V:3 treble 
V:2 bass 
V:4 bass 
V:1
 z3 z2[Q:1/4=81] G | B>cB G>FE | [DF]3- [DF][EG][FA] | [Ac]3 [_Gd]3 | [GB]3- [GB]2 G | B>cB G>FE | %6
 [DF]3- [DF][DG][DG] | z3 .d3 |[M:3/8] [DB]3 | [DB]2 [FA] |[M:3/4] G>_G =GG- G/_G/=G | %11
 [DB]3 [DF]2 [FA] | z2 z .[Bd]3[K:bass][K:treble] | [GB]6 | G>_G =GG- G/_G/=G | [DB]3 [DF]2 [DG] | %16
 z2 z .d3 | [DB]4- [DB][FA] | G>_G =GG- G/_G/=G | [DB]3 [DF]2 [FA] | %20
 z2 z .[Bd]3[K:bass][K:treble] |[M:5/8] [GB]-[GB]- [GB]3 |[M:1/8] E |[M:3/4] G>G GG AB | %24
[M:7/8] c3 e3 c |[M:3/4] B c2 [EG]2 [DF] | E6 | G>F E [DF]3 | [FA]>[EG] [DF] G3 | G>G GG AB | %30
[M:7/8] c3 e3 c |[M:3/4] B c2 [B,EG]2 [A,DF] |[M:5/8] [G,E]-[G,E]- [G,E]3 |] %33
V:2
 z3 z2 [E,B,E] | [E,G,E]>[E,A,E][E,G,E] [E,B,E]>[E,A,E][E,G,] | [B,,B,]3- [B,,B,][B,,B,][B,,B,] | %3
 [B,,B,]3 [B,,B,]3 | [E,B,]3- [E,B,]2 [E,B,E] | [E,G,E]>[E,A,E][E,G,E] [E,B,E]>[E,A,E][E,G,] | %6
 [B,,B,]3- [B,,B,][B,,B,][B,,B,] | [F,CE] [F,=A,E]2 .[F,B,F]2 [F,A,E] |[M:3/8] [B,,B,]3 | %9
 [B,,F,]2 [B,,B,] |[M:3/4] [E,B,E]>[E,=A,E] [E,B,E][E,B,E]- [E,B,E]/[E,A,E]/[E,B,E] | %11
 [B,,B,]3 [B,,B,]2 [B,,B,] | [B,,B,]2 [B,,B,] B,2 [D,B,] | z E E, E,2 B,, | %14
 [E,B,E]>[E,=A,E] [E,B,E][E,B,E]- [E,B,E]/[E,A,E]/[E,B,E] | [B,,B,]3 [B,,B,]2 [B,,B,] | %16
 [F,CE] [F,=A,E]2 [F,F]2 [F,A,E] | [B,,B,]4- [B,,B,][B,,B,] | %18
 [E,B,E]>[E,=A,E] [E,B,E][E,B,E]- [E,B,E]/[E,A,E]/[E,B,E] | [B,,B,]3 [B,,B,]2 [B,,B,] | z2 z .B,3 | %21
[M:5/8] B, z z z2 |[M:1/8] [E,G,] | %23
[M:3/4] [E,B,E]>[E,B,E] [E,B,E][E,B,E] [F,B,D][K:treble][G,B,E] |[M:7/8] [A,E]3 [=A,C_G]3 [A,EG] | %25
[M:3/4] [B,EG] [B,EG]2[K:bass] [B,,B,]2 [B,,A,] | [E,G,]6 | [E,B,E]>[E,A,E] [E,G,] [B,,B,]3 | %28
 [B,,F,]>[B,,G,] [B,,A,] [E,B,E]3 | [E,B,E]>[E,B,E] [E,B,E][E,B,E] [F,B,D][K:treble][G,B,E] | %30
[M:7/8] [A,E]3 [=A,C_G]3 [A,EG] |[M:3/4] [B,EG]3[K:bass] B,,2 B,, |[M:5/8] E,-E,- E,3 |] %33
V:3
 x6 | x6 | x6 | x6 | x6 | x6 | x6 | =A F2 z G,c |[M:3/8] x3 | x3 |[M:3/4] x6 | x6 | %12
 [Ac]4[K:bass] C,[K:treble][Ac] | .B,2 C B,2 [B,FA] | x6 | x6 | =A .F3 G,c | x6 | x6 | x6 | %20
 [Ac]4[K:bass] C,[K:treble][Ac] |[M:5/8] z EC B,2 |[M:1/8] x |[M:3/4] x6 |[M:7/8] x7 |[M:3/4] x6 | %26
 x6 | x6 | x6 | x6 |[M:7/8] x7 |[M:3/4] x6 |[M:5/8] x5 |] %33
V:4
 x6 | x6 | x6 | x6 | x6 | x6 | x6 | x6 |[M:3/8] x3 | x3 |[M:3/4] x6 | x6 | z2 z B,, z2 | %13
 E,2 z2 z2 | x6 | x6 | z2 z B, z2 | x6 | x6 | x6 | [B,,B,]3 B,, z [D,B,] |[M:5/8] E,-E,- E,3 | %22
[M:1/8] x |[M:3/4] x5[K:treble] x |[M:7/8] x7 |[M:3/4] x3[K:bass] x3 | x6 | x6 | x6 | %29
 x5[K:treble] x |[M:7/8] x7 |[M:3/4] x3[K:bass] x3 |[M:5/8] x5 |] %33

